the-plus-addons-for-block-editor/assets/images/coupon-code/code-1.svg

<svg width="1000" height="700" viewBox="0 0 1000 700" fill="none" xmlns="http://www.w3.org/2000/svg">
<rect width="1000" height="700" fill="#FCFCFF"/>
<path fill-rule="evenodd" clip-rule="evenodd" d="M237 282.5C237 278.358 240.358 275 244.5 275H754.5C758.642 275 762 278.358 762 282.5V330.448L740.033 346.355C737.552 348.152 737.552 351.848 740.033 353.645L762 369.552V417.5C762 421.642 758.642 425 754.5 425H244.5C240.358 425 237 421.642 237 417.5V370.638L260.467 353.645C262.948 351.848 262.948 348.152 260.467 346.355L237 329.362V282.5Z" fill="#888888"/>
<path d="M333.463 371.42C330.663 371.42 328.143 370.94 325.903 369.98C323.663 368.98 321.903 367.58 320.623 365.78C319.343 363.98 318.703 361.88 318.703 359.48H326.023C326.183 361.28 326.883 362.76 328.123 363.92C329.403 365.08 331.183 365.66 333.463 365.66C335.823 365.66 337.663 365.1 338.983 363.98C340.303 362.82 340.963 361.34 340.963 359.54C340.963 358.14 340.543 357 339.703 356.12C338.903 355.24 337.883 354.56 336.643 354.08C335.443 353.6 333.763 353.08 331.603 352.52C328.883 351.8 326.663 351.08 324.943 350.36C323.263 349.6 321.823 348.44 320.623 346.88C319.423 345.32 318.823 343.24 318.823 340.64C318.823 338.24 319.423 336.14 320.623 334.34C321.823 332.54 323.503 331.16 325.663 330.2C327.823 329.24 330.323 328.76 333.163 328.76C337.203 328.76 340.503 329.78 343.063 331.82C345.663 333.82 347.103 336.58 347.383 340.1H339.823C339.703 338.58 338.983 337.28 337.663 336.2C336.343 335.12 334.603 334.58 332.443 334.58C330.483 334.58 328.883 335.08 327.643 336.08C326.403 337.08 325.783 338.52 325.783 340.4C325.783 341.68 326.163 342.74 326.923 343.58C327.723 344.38 328.723 345.02 329.923 345.5C331.123 345.98 332.763 346.5 334.843 347.06C337.603 347.82 339.843 348.58 341.563 349.34C343.323 350.1 344.803 351.28 346.003 352.88C347.243 354.44 347.863 356.54 347.863 359.18C347.863 361.3 347.283 363.3 346.123 365.18C345.003 367.06 343.343 368.58 341.143 369.74C338.983 370.86 336.423 371.42 333.463 371.42ZM389.234 329.3V371H382.394V352.76H362.774V371H355.934V329.3H362.774V347.18H382.394V329.3H389.234ZM417.258 371.42C413.378 371.42 409.798 370.52 406.518 368.72C403.278 366.88 400.698 364.34 398.778 361.1C396.898 357.82 395.958 354.14 395.958 350.06C395.958 345.98 396.898 342.32 398.778 339.08C400.698 335.84 403.278 333.32 406.518 331.52C409.798 329.68 413.378 328.76 417.258 328.76C421.178 328.76 424.758 329.68 427.998 331.52C431.278 333.32 433.858 335.84 435.738 339.08C437.618 342.32 438.558 345.98 438.558 350.06C438.558 354.14 437.618 357.82 435.738 361.1C433.858 364.34 431.278 366.88 427.998 368.72C424.758 370.52 421.178 371.42 417.258 371.42ZM417.258 365.48C420.018 365.48 422.478 364.86 424.638 363.62C426.798 362.34 428.478 360.54 429.678 358.22C430.918 355.86 431.538 353.14 431.538 350.06C431.538 346.98 430.918 344.28 429.678 341.96C428.478 339.64 426.798 337.86 424.638 336.62C422.478 335.38 420.018 334.76 417.258 334.76C414.498 334.76 412.038 335.38 409.878 336.62C407.718 337.86 406.018 339.64 404.778 341.96C403.578 344.28 402.978 346.98 402.978 350.06C402.978 353.14 403.578 355.86 404.778 358.22C406.018 360.54 407.718 362.34 409.878 363.62C412.038 364.86 414.498 365.48 417.258 365.48ZM499.589 329.3L487.229 371H479.489L470.729 339.44L461.429 371L453.749 371.06L441.929 329.3H449.189L457.829 363.26L467.189 329.3H474.869L483.569 363.08L492.269 329.3H499.589ZM518.536 350.06C518.536 345.98 519.476 342.32 521.356 339.08C523.276 335.84 525.856 333.32 529.096 331.52C532.376 329.68 535.956 328.76 539.836 328.76C544.276 328.76 548.216 329.86 551.656 332.06C555.136 334.22 557.656 337.3 559.216 341.3H550.996C549.916 339.1 548.416 337.46 546.496 336.38C544.576 335.3 542.356 334.76 539.836 334.76C537.076 334.76 534.616 335.38 532.456 336.62C530.296 337.86 528.596 339.64 527.356 341.96C526.156 344.28 525.556 346.98 525.556 350.06C525.556 353.14 526.156 355.84 527.356 358.16C528.596 360.48 530.296 362.28 532.456 363.56C534.616 364.8 537.076 365.42 539.836 365.42C542.356 365.42 544.576 364.88 546.496 363.8C548.416 362.72 549.916 361.08 550.996 358.88H559.216C557.656 362.88 555.136 365.96 551.656 368.12C548.216 370.28 544.276 371.36 539.836 371.36C535.916 371.36 532.336 370.46 529.096 368.66C525.856 366.82 523.276 364.28 521.356 361.04C519.476 357.8 518.536 354.14 518.536 350.06ZM586.243 371.42C582.363 371.42 578.783 370.52 575.503 368.72C572.263 366.88 569.683 364.34 567.763 361.1C565.883 357.82 564.943 354.14 564.943 350.06C564.943 345.98 565.883 342.32 567.763 339.08C569.683 335.84 572.263 333.32 575.503 331.52C578.783 329.68 582.363 328.76 586.243 328.76C590.163 328.76 593.743 329.68 596.983 331.52C600.263 333.32 602.843 335.84 604.723 339.08C606.603 342.32 607.543 345.98 607.543 350.06C607.543 354.14 606.603 357.82 604.723 361.1C602.843 364.34 600.263 366.88 596.983 368.72C593.743 370.52 590.163 371.42 586.243 371.42ZM586.243 365.48C589.003 365.48 591.463 364.86 593.623 363.62C595.783 362.34 597.463 360.54 598.663 358.22C599.903 355.86 600.523 353.14 600.523 350.06C600.523 346.98 599.903 344.28 598.663 341.96C597.463 339.64 595.783 337.86 593.623 336.62C591.463 335.38 589.003 334.76 586.243 334.76C583.483 334.76 581.023 335.38 578.863 336.62C576.703 337.86 575.003 339.64 573.763 341.96C572.563 344.28 571.963 346.98 571.963 350.06C571.963 353.14 572.563 355.86 573.763 358.22C575.003 360.54 576.703 362.34 578.863 363.62C581.023 364.86 583.483 365.48 586.243 365.48ZM627.893 329.3C632.333 329.3 636.213 330.16 639.533 331.88C642.893 333.56 645.473 336 647.273 339.2C649.113 342.36 650.033 346.06 650.033 350.3C650.033 354.54 649.113 358.22 647.273 361.34C645.473 364.46 642.893 366.86 639.533 368.54C636.213 370.18 632.333 371 627.893 371H614.273V329.3H627.893ZM627.893 365.42C632.773 365.42 636.513 364.1 639.113 361.46C641.713 358.82 643.013 355.1 643.013 350.3C643.013 345.46 641.713 341.68 639.113 338.96C636.513 336.24 632.773 334.88 627.893 334.88H621.113V365.42H627.893ZM663.653 334.82V347.06H678.053V352.64H663.653V365.42H679.853V371H656.813V329.24H679.853V334.82H663.653Z" fill="white"/>
</svg>

<svg xmlns="http://www.w3.org/2000/svg" width="1000" height="700" fill="none" viewBox="0 0 1000 700"><path fill="#FCFCFF" d="M0 0h1000v700H0z"/><path fill="#888" fill-rule="evenodd" d="M237 282.5a7.5 7.5 0 0 1 7.5-7.5h510a7.5 7.5 0 0 1 7.5 7.5v47.948l-21.967 15.907c-2.481 1.797-2.481 5.493 0 7.29L762 369.552V417.5a7.5 7.5 0 0 1-7.5 7.5h-510a7.5 7.5 0 0 1-7.5-7.5v-46.862l23.467-16.993c2.481-1.797 2.481-5.493 0-7.29L237 329.362V282.5Z" clip-rule="evenodd"/><path fill="#fff" d="M333.463 371.42c-2.8 0-5.32-.48-7.56-1.44-2.24-1-4-2.4-5.28-4.2-1.28-1.8-1.92-3.9-1.92-6.3h7.32c.16 1.8.86 3.28 2.1 4.44 1.28 1.16 3.06 1.74 5.34 1.74 2.36 0 4.2-.56 5.52-1.68 1.32-1.16 1.98-2.64 1.98-4.44 0-1.4-.42-2.54-1.26-3.42-.8-.88-1.82-1.56-3.06-2.04-1.2-.48-2.88-1-5.04-1.56-2.72-.72-4.94-1.44-6.66-2.16-1.68-.76-3.12-1.92-4.32-3.48-1.2-1.56-1.8-3.64-1.8-6.24 0-2.4.6-4.5 1.8-6.3 1.2-1.8 2.88-3.18 5.04-4.14 2.16-.96 4.66-1.44 7.5-1.44 4.04 0 7.34 1.02 9.9 3.06 2.6 2 4.04 4.76 4.32 8.28h-7.56c-.12-1.52-.84-2.82-2.16-3.9-1.32-1.08-3.06-1.62-5.22-1.62-1.96 0-3.56.5-4.8 1.5-1.24 1-1.86 2.44-1.86 4.32 0 1.28.38 2.34 1.14 3.18.8.8 1.8 1.44 3 1.92s2.84 1 4.92 1.56c2.76.76 5 1.52 6.72 2.28 1.76.76 3.24 1.94 4.44 3.54 1.24 1.56 1.86 3.66 1.86 6.3 0 2.12-.58 4.12-1.74 6-1.12 1.88-2.78 3.4-4.98 4.56-2.16 1.12-4.72 1.68-7.68 1.68Zm55.771-42.12V371h-6.84v-18.24h-19.62V371h-6.84v-41.7h6.84v17.88h19.62V329.3h6.84Zm28.024 42.12c-3.88 0-7.46-.9-10.74-2.7-3.24-1.84-5.82-4.38-7.74-7.62-1.88-3.28-2.82-6.96-2.82-11.04 0-4.08.94-7.74 2.82-10.98 1.92-3.24 4.5-5.76 7.74-7.56 3.28-1.84 6.86-2.76 10.74-2.76 3.92 0 7.5.92 10.74 2.76 3.28 1.8 5.86 4.32 7.74 7.56 1.88 3.24 2.82 6.9 2.82 10.98s-.94 7.76-2.82 11.04c-1.88 3.24-4.46 5.78-7.74 7.62-3.24 1.8-6.82 2.7-10.74 2.7Zm0-5.94c2.76 0 5.22-.62 7.38-1.86 2.16-1.28 3.84-3.08 5.04-5.4 1.24-2.36 1.86-5.08 1.86-8.16s-.62-5.78-1.86-8.1c-1.2-2.32-2.88-4.1-5.04-5.34-2.16-1.24-4.62-1.86-7.38-1.86s-5.22.62-7.38 1.86c-2.16 1.24-3.86 3.02-5.1 5.34-1.2 2.32-1.8 5.02-1.8 8.1s.6 5.8 1.8 8.16c1.24 2.32 2.94 4.12 5.1 5.4 2.16 1.24 4.62 1.86 7.38 1.86Zm82.331-36.18-12.36 41.7h-7.74l-8.76-31.56-9.3 31.56-7.68.06-11.82-41.76h7.26l8.64 33.96 9.36-33.96h7.68l8.7 33.78 8.7-33.78h7.32Zm18.947 20.76c0-4.08.94-7.74 2.82-10.98 1.92-3.24 4.5-5.76 7.74-7.56 3.28-1.84 6.86-2.76 10.74-2.76 4.44 0 8.38 1.1 11.82 3.3 3.48 2.16 6 5.24 7.56 9.24h-8.22c-1.08-2.2-2.58-3.84-4.5-4.92s-4.14-1.62-6.66-1.62c-2.76 0-5.22.62-7.38 1.86-2.16 1.24-3.86 3.02-5.1 5.34-1.2 2.32-1.8 5.02-1.8 8.1s.6 5.78 1.8 8.1c1.24 2.32 2.94 4.12 5.1 5.4 2.16 1.24 4.62 1.86 7.38 1.86 2.52 0 4.74-.54 6.66-1.62s3.42-2.72 4.5-4.92h8.22c-1.56 4-4.08 7.08-7.56 9.24-3.44 2.16-7.38 3.24-11.82 3.24-3.92 0-7.5-.9-10.74-2.7-3.24-1.84-5.82-4.38-7.74-7.62-1.88-3.24-2.82-6.9-2.82-10.98Zm67.707 21.36c-3.88 0-7.46-.9-10.74-2.7-3.24-1.84-5.82-4.38-7.74-7.62-1.88-3.28-2.82-6.96-2.82-11.04 0-4.08.94-7.74 2.82-10.98 1.92-3.24 4.5-5.76 7.74-7.56 3.28-1.84 6.86-2.76 10.74-2.76 3.92 0 7.5.92 10.74 2.76 3.28 1.8 5.86 4.32 7.74 7.56 1.88 3.24 2.82 6.9 2.82 10.98s-.94 7.76-2.82 11.04c-1.88 3.24-4.46 5.78-7.74 7.62-3.24 1.8-6.82 2.7-10.74 2.7Zm0-5.94c2.76 0 5.22-.62 7.38-1.86 2.16-1.28 3.84-3.08 5.04-5.4 1.24-2.36 1.86-5.08 1.86-8.16s-.62-5.78-1.86-8.1c-1.2-2.32-2.88-4.1-5.04-5.34-2.16-1.24-4.62-1.86-7.38-1.86s-5.22.62-7.38 1.86c-2.16 1.24-3.86 3.02-5.1 5.34-1.2 2.32-1.8 5.02-1.8 8.1s.6 5.8 1.8 8.16c1.24 2.32 2.94 4.12 5.1 5.4 2.16 1.24 4.62 1.86 7.38 1.86Zm41.65-36.18c4.44 0 8.32.86 11.64 2.58 3.36 1.68 5.94 4.12 7.74 7.32 1.84 3.16 2.76 6.86 2.76 11.1 0 4.24-.92 7.92-2.76 11.04-1.8 3.12-4.38 5.52-7.74 7.2-3.32 1.64-7.2 2.46-11.64 2.46h-13.62v-41.7h13.62Zm0 36.12c4.88 0 8.62-1.32 11.22-3.96 2.6-2.64 3.9-6.36 3.9-11.16 0-4.84-1.3-8.62-3.9-11.34-2.6-2.72-6.34-4.08-11.22-4.08h-6.78v30.54h6.78Zm35.76-30.6v12.24h14.4v5.58h-14.4v12.78h16.2V371h-23.04v-41.76h23.04v5.58h-16.2Z"/></svg>
